app/dist/common/images/varex-imaging.svg

<svg height="18" viewBox="0 0 18 18" width="18" xmlns="http://www.w3.org/2000/svg"><path d="m0 0h18v18h-18z" fill="#f0f3fa"/><path d="m11.75 5.5h-.95l-1.46 3.27.48.98z" fill="#bdc737"/><path d="m3 5.5h.92l4.05 8.5h-.88zm1.54 0h.92l4.04 8.5h-.88zm1.58 0h.91l4.05 8.5h-.87l-4.11-8.5z" fill="#2d4767"/><path d="m12.47 5.5h.92l-2.72 5.97-.47-1.02zm-.85 7.85-.5-1.07 2.94-6.78h.94z" fill="#237952"/></svg>

<!-- by TradingView --><svg xmlns="http://www.w3.org/2000/svg" width="18" height="18" viewBox="0 0 18 18"><path fill="#F0F3FA" d="M0 0h18v18H0z"/><path d="M11.75 5.5h-.95L9.34 8.77l.48.98 1.93-4.25Z" fill="#BDC737"/><path d="M3 5.5h.92L7.97 14h-.88L3 5.5ZM4.54 5.5h.92L9.5 14h-.88L4.54 5.5ZM6.12 5.5h.91l4.05 8.5h-.87L6.1 5.5Z" fill="#2D4767"/><path d="M12.47 5.5h.92l-2.72 5.97-.47-1.02 2.27-4.95ZM11.62 13.35l-.5-1.07 2.94-6.78H15l-3.38 7.85Z" fill="#237952"/></svg>
